X: 7767
T: Comb Your Hair And Curl It
R: slip jig
M: 9/8
K: Edorian
|:B2E E2F G2A|Bcd edc d2c|B2E E2F G2A|1 ~B3 AGF G2E:|2 ~B3 AGF G2e||
|:~g2e e2d efg|~f2d d2c def|~g2e e2d e2c|1 d2B AGF G2e:|2 d2B AGF G2E||

